X: 18701
T: I'm The Boy For Bewitching Them
R: slip jig
M: 9/8
K: Dmajor
D>ED D>dB AFD|E>FE EFA B2d|D>ED D>dB AFD|E>FG FEF B,3:|
|:d>ed ded cBA|B>cB Bcd e2f|d>ed ded cBA|dcB AGF E3:|

